Catalina-dark/actions/22/kt-remove-filters.svg

<svg xmlns="http://www.w3.org/2000/svg" viewBox="0 0 22 22">
  <defs id="defs3051">
    <style type="text/css" id="current-color-scheme">
      .ColorScheme-NegativeText {
        color:#da4453;
      }
      </style>
  </defs>
    <path
       style="fill:currentColor;fill-opacity:1;stroke:none"
       class="ColorScheme-NegativeText"
       d="M 3.8144531 3 C 3.1691831 3 2.8316612 3.7664575 3.2695312 4.2421875 L 9.09375 10.560547 C 9.26165 10.743257 9.3535156 10.981596 9.3535156 11.228516 L 9.3535156 18.503906 C 9.3535156 18.941786 9.8825525 19.165262 10.195312 18.857422 L 12.224609 16.53125 C 12.496219 16.20532 12.646484 16.043323 12.646484 15.720703 L 12.646484 11.230469 C 12.646484 10.983549 12.73998 10.74523 12.90625 10.5625 L 18.730469 4.2421875 C 19.166689 3.7681075 18.830837 3 18.185547 3 L 3.8144531 3 z "
        />
</svg>

<svg width="22" height="22" viewBox="3.072 3 15.86 16" xmlns="http://www.w3.org/2000/svg">
<defs>
<style id="current-color-scheme" type="text/css">.ColorScheme-NegativeText {
        color:#da4453;
      }</style>
</defs>
<path class="ColorScheme-NegativeText" d="m3.8145 3c-0.64527 0-0.98279 0.76646-0.54492 1.2422l5.8242 6.3184c0.1679 0.18271 0.25977 0.42105 0.25977 0.66797v7.2754c0 0.43788 0.52904 0.66136 0.8418 0.35352l2.0293-2.3262c0.27161-0.32593 0.42188-0.48793 0.42188-0.81055v-4.4902c0-0.24692 0.093496-0.48524 0.25977-0.66797l5.8242-6.3203c0.43622-0.47408 0.10037-1.2422-0.54492-1.2422h-14.371z" fill="currentColor"/>
</svg>
